static/img/kroki/9f2598b8d8325834c78cb56719d3a21a.svg

<?xml version="1.0" encoding="us-ascii" standalone="no"?><svg xmlns="http://www.w3.org/2000/svg" xmlns:xlink="http://www.w3.org/1999/xlink" contentStyleType="text/css" height="352px" preserveAspectRatio="none" style="width:478px;height:352px;" version="1.1" viewBox="0 0 478 352" width="478px" zoomAndPan="magnify"><defs/><g><!--class aws_bedrock_agent_flow--><g id="elem_aws_bedrock_agent_flow"><rect codeLine="23" fill="#3D176E" height="39.7891" id="aws_bedrock_agent_flow" rx="2.5" ry="2.5" style="stroke:#000D19;stroke-width:0.5;" width="251" x="220" y="106.79"/><ellipse cx="235" cy="126.6845" fill="#ADD1B2" rx="11" ry="11" style="stroke:#181818;stroke-width:1.0;"/><path d="M237.9688,132.3252 Q237.3906,132.622 236.75,132.7627 Q236.1094,132.9189 235.4063,132.9189 Q232.9063,132.9189 231.5781,131.2783 Q230.2656,129.622 230.2656,126.497 Q230.2656,123.372 231.5781,121.7158 Q232.9063,120.0595 235.4063,120.0595 Q236.1094,120.0595 236.75,120.2158 Q237.4063,120.372 237.9688,120.6689 L237.9688,123.3877 Q237.3438,122.8095 236.75,122.5439 Q236.1563,122.2627 235.5313,122.2627 Q234.1875,122.2627 233.5,123.3408 Q232.8125,124.4033 232.8125,126.497 Q232.8125,128.5908 233.5,129.6689 Q234.1875,130.7314 235.5313,130.7314 Q236.1563,130.7314 236.75,130.4658 Q237.3438,130.1845 237.9688,129.6064 L237.9688,132.3252 Z " fill="#000000"/><text fill="#D9B8FF" font-family="Helvetica" font-size="17" lengthAdjust="spacing" textLength="209" x="254" y="132.5698">aws_bedrock_agent_flow</text></g><!--class aws_bedrock_agent_flow_version--><g id="elem_aws_bedrock_agent_flow_version"><rect codeLine="26" fill="#3D176E" height="39.7891" id="aws_bedrock_agent_flow_version" rx="2.5" ry="2.5" style="stroke:#000D19;stroke-width:0.5;" width="321" x="7" y="206.58"/><ellipse cx="22" cy="226.4745" fill="#ADD1B2" rx="11" ry="11" style="stroke:#181818;stroke-width:1.0;"/><path d="M24.9688,232.1152 Q24.3906,232.412 23.75,232.5527 Q23.1094,232.7089 22.4063,232.7089 Q19.9063,232.7089 18.5781,231.0683 Q17.2656,229.412 17.2656,226.287 Q17.2656,223.162 18.5781,221.5058 Q19.9063,219.8495 22.4063,219.8495 Q23.1094,219.8495 23.75,220.0058 Q24.4063,220.162 24.9688,220.4589 L24.9688,223.1777 Q24.3438,222.5995 23.75,222.3339 Q23.1563,222.0527 22.5313,222.0527 Q21.1875,222.0527 20.5,223.1308 Q19.8125,224.1933 19.8125,226.287 Q19.8125,228.3808 20.5,229.4589 Q21.1875,230.5214 22.5313,230.5214 Q23.1563,230.5214 23.75,230.2558 Q24.3438,229.9745 24.9688,229.3964 L24.9688,232.1152 Z " fill="#000000"/><text fill="#D9B8FF" font-family="Helvetica" font-size="17" lengthAdjust="spacing" textLength="279" x="41" y="232.3598">aws_bedrock_agent_flow_version</text></g><!--class aws_iam_role--><g id="elem_aws_iam_role"><rect codeLine="29" fill="#3D176E" height="39.7891" id="aws_iam_role" rx="2.5" ry="2.5" style="stroke:#000D19;stroke-width:0.5;" width="157" x="178" y="7"/><ellipse cx="193" cy="26.8945" fill="#ADD1B2" rx="11" ry="11" style="stroke:#181818;stroke-width:1.0;"/><path d="M195.9688,32.5352 Q195.3906,32.832 194.75,32.9727 Q194.1094,33.1289 193.4063,33.1289 Q190.9063,33.1289 189.5781,31.4883 Q188.2656,29.832 188.2656,26.707 Q188.2656,23.582 189.5781,21.9258 Q190.9063,20.2695 193.4063,20.2695 Q194.1094,20.2695 194.75,20.4258 Q195.4063,20.582 195.9688,20.8789 L195.9688,23.5977 Q195.3438,23.0195 194.75,22.7539 Q194.1563,22.4727 193.5313,22.4727 Q192.1875,22.4727 191.5,23.5508 Q190.8125,24.6133 190.8125,26.707 Q190.8125,28.8008 191.5,29.8789 Q192.1875,30.9414 193.5313,30.9414 Q194.1563,30.9414 194.75,30.6758 Q195.3438,30.3945 195.9688,29.8164 L195.9688,32.5352 Z " fill="#000000"/><text fill="#D9B8FF" font-family="Helvetica" font-size="17" lengthAdjust="spacing" textLength="115" x="212" y="32.7798">aws_iam_role</text></g><!--class aws_kms_key--><g id="elem_aws_kms_key"><rect codeLine="32" fill="#3D176E" height="39.7891" id="aws_kms_key" rx="2.5" ry="2.5" style="stroke:#000D19;stroke-width:0.5;" width="158" x="194.5" y="306.37"/><ellipse cx="209.5" cy="326.2645" fill="#ADD1B2" rx="11" ry="11" style="stroke:#181818;stroke-width:1.0;"/><path d="M212.4688,331.9052 Q211.8906,332.202 211.25,332.3427 Q210.6094,332.4989 209.9063,332.4989 Q207.4063,332.4989 206.0781,330.8583 Q204.7656,329.202 204.7656,326.077 Q204.7656,322.952 206.0781,321.2958 Q207.4063,319.6395 209.9063,319.6395 Q210.6094,319.6395 211.25,319.7958 Q211.9063,319.952 212.4688,320.2489 L212.4688,322.9677 Q211.8438,322.3895 211.25,322.1239 Q210.6563,321.8427 210.0313,321.8427 Q208.6875,321.8427 208,322.9208 Q207.3125,323.9833 207.3125,326.077 Q207.3125,328.1708 208,329.2489 Q208.6875,330.3114 210.0313,330.3114 Q210.6563,330.3114 211.25,330.0458 Q211.8438,329.7645 212.4688,329.1864 L212.4688,331.9052 Z " fill="#000000"/><text fill="#D9B8FF" font-family="Helvetica" font-size="17" lengthAdjust="spacing" textLength="116" x="228.5" y="332.1498">aws_kms_key</text></g><!--link aws_bedrock_agent_flow to aws_bedrock_agent_flow_version--><g id="link_aws_bedrock_agent_flow_aws_bedrock_agent_flow_version"><path codeLine="35" d="M310.33,147.01 C279.13,164.15 239.0383,186.1704 207.8483,203.3104 " fill="none" id="aws_bedrock_agent_flow-to-aws_bedrock_agent_flow_version" style="stroke:#1A83AF;stroke-width:2.0;"/><polygon fill="#1A83AF" points="202.59,206.2,212.4039,205.3711,206.9719,203.792,208.5511,198.36,202.59,206.2" style="stroke:#1A83AF;stroke-width:2.0;"/></g><!--link aws_bedrock_agent_flow to aws_kms_key--><g id="link_aws_bedrock_agent_flow_aws_kms_key"><path codeLine="36" d="M349.64,146.96 C353.91,171.11 358.31,213.33 345.5,246.37 C336.18,270.4 320.3142,287.6937 303.5842,302.0437 " fill="none" id="aws_bedrock_agent_flow-to-aws_kms_key" style="stroke:#1A83AF;stroke-width:2.0;"/><polygon fill="#1A83AF" points="299.03,305.95,308.4655,303.1267,302.8252,302.6947,303.2571,297.0544,299.03,305.95" style="stroke:#1A83AF;stroke-width:2.0;"/></g><!--link aws_bedrock_agent_flow_version to aws_kms_key--><g id="link_aws_bedrock_agent_flow_version_aws_kms_key"><path codeLine="37" d="M188.44,246.8 C207.03,263.94 229.621,284.7805 248.191,301.9205 " fill="none" id="aws_bedrock_agent_flow_version-to-aws_kms_key" style="stroke:#1A83AF;stroke-width:2.0;"/><polygon fill="#1A83AF" points="252.6,305.99,248.6995,296.9464,248.9258,302.5988,243.2735,302.8251,252.6,305.99" style="stroke:#1A83AF;stroke-width:2.0;"/></g><!--link aws_iam_role to aws_bedrock_agent_flow--><g id="link_aws_iam_role_aws_bedrock_agent_flow"><path codeLine="38" d="M274.08,47.22 C289.69,64.36 308.3215,84.8426 323.9115,101.9726 " fill="none" id="aws_iam_role-to-aws_bedrock_agent_flow" style="stroke:#1A83AF;stroke-width:2.0;"/><polygon fill="#1A83AF" points="327.95,106.41,324.8505,97.0616,324.5846,102.7122,318.934,102.4462,327.95,106.41" style="stroke:#1A83AF;stroke-width:2.0;"/></g><!--link aws_iam_role to aws_bedrock_agent_flow_version--><g id="link_aws_iam_role_aws_bedrock_agent_flow_version"><path codeLine="39" d="M240.67,47.27 C228.78,62.63 212.83,85.05 202.5,106.79 C186.65,140.17 177.5428,176.4001 172.4528,200.4401 " fill="none" id="aws_iam_role-to-aws_bedrock_agent_flow_version" style="stroke:#1A83AF;stroke-width:2.0;"/><polygon fill="#1A83AF" points="171.21,206.31,176.9875,198.3337,172.2457,201.4184,169.161,196.6766,171.21,206.31" style="stroke:#1A83AF;stroke-width:2.0;"/></g><!--SRC=[bP91Ry8m38Nl_HMHE2FHeGsuJEgGq7P1qzXjcYgtSI1gao0dKB5f_trbC9IbqB93BlONl_SihoH7XchjTaoXof1iP0kfrq2WM49aggaf3R6U4226ex0vCzfr0dDGo1wntAAJEOJ4wqhcXKPhsOtNUe2yM9BPQ7uOxmYqhLkedKTDIx0sSOvajd7ecU6JR2n4I8P3UqCUZ-wmWHdYI4TaC1ZmU18YdLAjkK_4GduWY_sbpOt3Xis6n0_Lwd9FU2ORGN_x5pq-0-TIBzcjLtivU2ADzAU-M04trPuMK5fVnZeaD6wtncaZ5Kx6N8pEma-Nu2ZVhuv1PTCCEPcyI65PtqGgIbEnpoZwQYNIRNtWqkYGbA1ICYM6zKBL3tU7yWNH_bilJiR3PFRUl- -GlNh4KJVgID7wxvJf2eF__d1Az0q0]--></g></svg>

<svg xmlns="http://www.w3.org/2000/svg" width="478" height="352" viewBox="0 0 478 352"><rect width="251" height="39.789" x="220" y="106.79" fill="#3D176E" rx="2.5" ry="2.5" style="stroke:#000d19;stroke-width:.5"/><circle cx="235" cy="126.684" r="11" fill="#ADD1B2" style="stroke:#181818;stroke-width:1"/><path d="M237.969 132.325q-.578.297-1.219.438-.64.156-1.344.156-2.5 0-3.828-1.64-1.312-1.657-1.312-4.782t1.312-4.781q1.328-1.656 3.828-1.656.703 0 1.344.156.656.156 1.219.453v2.719q-.625-.579-1.219-.844-.594-.281-1.219-.281-1.344 0-2.031 1.078-.687 1.062-.687 3.156t.687 3.172q.688 1.062 2.031 1.062.625 0 1.219-.265.594-.281 1.219-.86z"/><text x="254" y="132.57" fill="#D9B8FF" font-family="Helvetica" font-size="17" textLength="209">aws_bedrock_agent_flow</text><rect width="321" height="39.789" x="7" y="206.58" fill="#3D176E" rx="2.5" ry="2.5" style="stroke:#000d19;stroke-width:.5"/><circle cx="22" cy="226.475" r="11" fill="#ADD1B2" style="stroke:#181818;stroke-width:1"/><path d="M24.969 232.115q-.578.297-1.219.438-.64.156-1.344.156-2.5 0-3.828-1.64-1.312-1.657-1.312-4.782t1.312-4.781q1.328-1.656 3.828-1.656.703 0 1.344.156.656.156 1.219.453v2.719q-.625-.578-1.219-.844-.594-.281-1.219-.281-1.343 0-2.031 1.078-.687 1.062-.687 3.156t.687 3.172q.688 1.062 2.031 1.062.625 0 1.219-.265.594-.281 1.219-.86z"/><text x="41" y="232.36" fill="#D9B8FF" font-family="Helvetica" font-size="17" textLength="279">aws_bedrock_agent_flow_version</text><rect width="157" height="39.789" x="178" y="7" fill="#3D176E" rx="2.5" ry="2.5" style="stroke:#000d19;stroke-width:.5"/><circle cx="193" cy="26.895" r="11" fill="#ADD1B2" style="stroke:#181818;stroke-width:1"/><path d="M195.969 32.535q-.578.297-1.219.438-.64.156-1.344.156-2.5 0-3.828-1.64-1.312-1.657-1.312-4.782t1.312-4.781q1.328-1.656 3.828-1.656.703 0 1.344.156.656.156 1.219.453v2.719q-.625-.578-1.219-.844-.594-.281-1.219-.281-1.344 0-2.031 1.078-.687 1.062-.687 3.156t.687 3.172q.688 1.062 2.031 1.062.625 0 1.219-.265.594-.281 1.219-.86z"/><text x="212" y="32.78" fill="#D9B8FF" font-family="Helvetica" font-size="17" textLength="115">aws_iam_role</text><rect width="158" height="39.789" x="194.5" y="306.37" fill="#3D176E" rx="2.5" ry="2.5" style="stroke:#000d19;stroke-width:.5"/><circle cx="209.5" cy="326.264" r="11" fill="#ADD1B2" style="stroke:#181818;stroke-width:1"/><path d="M212.469 331.905q-.578.297-1.219.438-.64.156-1.344.156-2.5 0-3.828-1.64-1.312-1.657-1.312-4.782t1.312-4.781q1.328-1.656 3.828-1.656.703 0 1.344.156.656.156 1.219.453v2.719q-.625-.579-1.219-.844-.594-.281-1.219-.281-1.344 0-2.031 1.078-.687 1.062-.687 3.156t.687 3.172q.688 1.062 2.031 1.062.625 0 1.219-.265.594-.281 1.219-.86z"/><text x="228.5" y="332.15" fill="#D9B8FF" font-family="Helvetica" font-size="17" textLength="116">aws_kms_key</text><path fill="none" d="M310.33 147.01c-31.2 17.14-71.292 39.16-102.482 56.3" style="stroke:#1a83af;stroke-width:2"/><path fill="#1A83AF" d="m202.59 206.2 9.814-.829-5.432-1.579 1.58-5.432z" style="stroke:#1a83af;stroke-width:2"/><path fill="none" d="M349.64 146.96c4.27 24.15 8.67 66.37-4.14 99.41-9.32 24.03-25.186 41.324-41.916 55.674" style="stroke:#1a83af;stroke-width:2"/><path fill="#1A83AF" d="m299.03 305.95 9.436-2.823-5.64-.432.431-5.64z" style="stroke:#1a83af;stroke-width:2"/><path fill="none" d="M188.44 246.8c18.59 17.14 41.181 37.98 59.751 55.12" style="stroke:#1a83af;stroke-width:2"/><path fill="#1A83AF" d="m252.6 305.99-3.9-9.044.226 5.653-5.652.226z" style="stroke:#1a83af;stroke-width:2"/><path fill="none" d="M274.08 47.22c15.61 17.14 34.242 37.623 49.832 54.753" style="stroke:#1a83af;stroke-width:2"/><path fill="#1A83AF" d="m327.95 106.41-3.1-9.348-.265 5.65-5.651-.266z" style="stroke:#1a83af;stroke-width:2"/><path fill="none" d="M240.67 47.27c-11.89 15.36-27.84 37.78-38.17 59.52-15.85 33.38-24.957 69.61-30.047 93.65" style="stroke:#1a83af;stroke-width:2"/><path fill="#1A83AF" d="m171.21 206.31 5.778-7.976-4.742 3.084-3.085-4.741z" style="stroke:#1a83af;stroke-width:2"/></svg>
